themes/ColwichTheme/static/images/icons/marquee.svg

<svg viewBox="0 0 640 512" xmlns="http://www.w3.org/2000/svg"><path d="m269.9 318.3c5.4 12.1 0 26.2-12.2 31.6-12.1 5.4-26.2 0-31.6-12.2l-4.4-9.7h-75.4l-4.4 9.7c-5.4 12.2-19.5 17.6-31.6 12.2-12.16-5.4-17.61-19.5-12.23-31.6l64.03-144c3.8-8.7 12.4-14.3 21.9-14.3s18.1 5.6 21.9 14.3zm-69.5-38.3-16.4-36.9-16.4 36.9zm102.7-96c0-13.3 11.6-24 24.9-24h52c33.1 0 60 26.9 60 60 0 9.2-2.1 17.9-5.8 25.7 13.3 11 21.8 27.7 21.8 46.3 0 33.1-26.9 60-60 60h-68c-13.3 0-24.9-10.7-24.9-24zm48.9 24v24h28c6.6 0 12-5.4 12-12s-5.4-12-12-12zm0 96h44c6.6 0 12-5.4 12-12s-5.4-12-12-12h-44z"/><path d="m576 64c35.3 0 64 28.65 64 64v256c0 35.3-28.7 64-64 64h-512c-35.35 0-64-28.7-64-64v-256c0-35.35 28.65-64 64-64zm0 64h-512v256h512z" opacity=".4"/></svg>

<svg xmlns="http://www.w3.org/2000/svg" viewBox="0 0 640 512"><!--! Font Awesome Pro 6.1.1 by @fontawesome - https://fontawesome.com License - https://fontawesome.com/license (Commercial License) Copyright 2022 Fonticons, Inc. --><defs><style>.fa-secondary{opacity:.4}</style></defs><path class="fa-primary" d="M269.9 318.3C275.3 330.4 269.9 344.5 257.7 349.9C245.6 355.3 231.5 349.9 226.1 337.7L221.7 328H146.3L141.9 337.7C136.5 349.9 122.4 355.3 110.3 349.9C98.14 344.5 92.69 330.4 98.07 318.3L162.1 174.3C165.9 165.6 174.5 160 184 160C193.5 160 202.1 165.6 205.9 174.3L269.9 318.3zM200.4 280L184 243.1L167.6 280H200.4zM303.1 184C303.1 170.7 314.7 160 328 160H380C413.1 160 440 186.9 440 220C440 229.2 437.9 237.9 434.2 245.7C447.5 256.7 456 273.4 456 292C456 325.1 429.1 352 396 352H328C314.7 352 303.1 341.3 303.1 328V184zM352 208V232H380C386.6 232 392 226.6 392 220C392 213.4 386.6 208 380 208H352zM352 304H396C402.6 304 408 298.6 408 292C408 285.4 402.6 280 396 280H352V304z"/><path class="fa-secondary" d="M576 64C611.3 64 640 92.65 640 128V384C640 419.3 611.3 448 576 448H64C28.65 448 0 419.3 0 384V128C0 92.65 28.65 64 64 64H576zM576 128H64V384H576V128z"/></svg>
